!!!COM: Beethoven, Ludwig van
!!!CDT: 1770///-1827///
!!!OTL: Piano Sonata no. 4 in E-flat major
!!!OTP: grand sonata
!!!ODE: a Madame la Comtesse Babette de Keglevics
!!!OMD: Allegro molto e con brio
!!!OPS: 7
!!!OMV: 1
!!!AGN: Sonata
**kern	**kern	**dynam
*staff2	*staff1	*staff1
*Ipiano	*Ipiano	*Ipiano
*clefF4	*clefG2	*clefG2
*k[b-e-a-]	*k[b-e-a-]	*k[b-e-a-]
*E-:	*E-:	*E-:
*>[A,A,B]	*>[A,A,B]	*>[A,A,B]
*>norep[A,B]	*>norep[A,B]	*>norep[A,B]
*>A	*>A	*>A
*M6/8	*M6/8	*M6/8
*MM154	*MM154	*MM154
=1-	=1-	=1-
8EE-/L	2.B-/ 2.e-/ 2.g/	p
8E-/	.	.
8E-/J	.	.
8E-\L	.	.
8E-\	.	.
8E-\J	.	.
=2	=2	=2
8E-\L	4G/ 4B-/ 4e-/	.
8E-\	.	.
8E-\J	8r	.
8E-\L	4r	.
8E-\	.	.
8E-\J	8r	.
=3	=3	=3
8EE-/L	2.B-/ 2.e-/ 2.g/ 2.b-/	.
8E-/	.	.
8E-/J	.	.
8E-\L	.	.
8E-\	.	.
8E-\J	.	.
=4	=4	=4
8E-\L	4G/ 4B-/ 4e-/ 4g/	.
8E-\	.	.
8E-\J	8r	.
8E-\L	4r	.
8E-\	.	.
8E-\J	8b-\	.
=5	=5	=5
*^	*	*
[2.e-/	4.E-\ 4.G\	(8ee-\L	.
.	.	8dd\	.
.	.	8ff\J	.
.	4.F\ 4.A-\	8ee-\L	.
.	.	8dd\	.
.	.	8ff\J	.
*v	*v	*	*
=6	=6	=6
4G\ 4B-\ 4e-\]	8ee-\L	.
.	8dd\	.
8r	8ff\J	.
4r	8ee-\L	.
.	8dd\	.
8r	8cc\J)	.
*clefG2	*	*
=7	=7	=7
*^	*	*
[2.b-/	4.B-\ 4.d\	(8aa-\L	.
.	.	8gg\	.
.	.	8bb-\J	.
.	4.c\ 4.e-\	8aa-\L	.
.	.	8gg\	.
.	.	8bb-\J	.
*v	*v	*	*
=8	=8	=8
4d/ 4f/ 4b-/]	8aa-\L	.
.	8gg\	.
8r	8bb-\J	.
4r	8aa-\L	.
.	8gg\	.
8r	8ff\J)	.
=9	=9	=9
*^	*	*
[2.ee-/	4.e-\ 4.g\	(8eee-\L	<
.	.	8ddd\	.
.	.	8fff\J	.
.	4.f\ 4.a-\	8eee-\L	.
.	.	8ddd\	.
.	.	8fff\J	.
*v	*v	*	*
=10	=10	=10
4.g\ 4.b-\ 4.ee-\]	8eee-\L	.
.	8ddd\	.
.	8fff\J	.
4.g\ 4.b-\ 4.dd-\ [4.ee-\	8eee-\L	.
.	8ddd-\	>
.	8ccc\J	.
=11	=11	=11
4a-\ 4cc\ 4ee-\]	8bbn\L	.
.	8ccc\	.
8r	8bb-\J	.
4r	8aa-\L	.
.	8gg\	.
8r	8ff\J	.
=12	=12	=12
4B-/ 4e-/ 4g/	8ee-\L	.
.	8dd\	.
8r	8ff\J	.
4B-/ 4f/ 4a-/	8aa-\L	.
.	8ff\	.
8r	8dd\J)	.
*clefF4	*	*
=13	=13	=13
(8e-\L	4ee-\	.
8d\	.	.
8f\J	8r	.
8e-\L	[4.g\ [4.ee-\ [4.gg\	.
8d\	.	.
8f\J	.	.
=14	=14	=14
8e-\L	4.g\] 4.ee-\] 4.gg\]	<
8d\	.	.
8f\J	.	.
8e-\L	4.a-\ 4.ee-\ 4.aa-\	.
8d\	.	.
8c\J	.	.
=15	=15	=15
8B-\L	2.b-\ 2.ee-\ 2.gg\ 2.bb-\	.
8An\	.	.
8c\J	.	.
8B-\L	.	.
8A-\	.	.
8G\J)	.	.
=16	=16	=16
*^	*	*
(8F/L	2.BB-\	2.d\ 2.a-\ 2.b-\ 2.dd\	.
8G/	.	.	.
8A-/J	.	.	.
8B-/L	.	.	.
8F/	.	.	.
8A-/J)	.	.	.
=17	=17	=17	=17
8G/L	(4E-\	4e-\ 4g\ 4b-\ 4ee-\	p
8F/	.	.	.
8G/J	8r	8r	.
4.r	8A-\L	4r	.
.	8B-\	.	.
.	8c\J	8r	.
*v	*v	*	*
=18	=18	=18
*	*^	*
8d\L	4r	4r	.
8e-\	.	.	.
8f\J	8r	8r	.
4.r	8ee-/L	8g\L	.
.	8ff/	8a-\	.
.	8gg/J	8b-\J	.
=19	=19	=19	=19
2.r	8ff/L	8a-\L	.
.	8ee-/	8g\	.
.	8dd/J	8f\J	.
.	8cc/L	8e-\L	.
.	8b-/	8d\	.
.	8a-/J	8c\J	.
*	*v	*v	*
=20	=20	=20
8B-\L	8g/L	.
8c\	8a-/	.
8B-\J	8g/J	.
8A-\L	8f/L	.
8G\	8e-/	.
8F\J)	8d/J	.
=21	=21	=21
4E-\	(8e-/L	<
.	8f/	.
8r	8g/J	.
4r	8a-\L	.
.	8b-\	.
8r	8cc\J	.
=22	=22	=22
4r	8dd\L	.
.	8ee-\	.
8r	8ff\J	.
(8e-\L	8gg\L	.
8f\	8aa-\	.
8g\J	8bb-\J)	.
=23	=23	=23
8f\L	8aa-\L	>
8e-\	8gg\	.
8d\J	8ff\J	.
8c\L	8ee-\L	.
8B-\	8dd\	.
8A-\J	8cc\J	.
=24	=24	=24
8G\L	8b-\L	.
8A-\	8cc\	.
8G\J	8b-\J	.
8F\L	8a-/L	.
8E-\	8g/	.
8D\J)	8f/J	.
=25	=25	=25
[2.DD-/ [2.EE-/ [2.D-/	2.G/ 2.B-/ 2.e-/ 2.g/	ff
=26	=26	=26
4DD-/] 4EE-/] 4D-/]	4E-/ 4G/ 4B-/ 4e-/	.
8r	8r	.
4r	4r	.
8d-'\ 8e-'\	8g'\ 8gg'\	pp
=27	=27	=27
4c'\ 4e-'\	4a-'\ 4aa-'\	.
8c'\ 8e-'\	8a-'\ 8aa-'\	.
4c'\ 4e-'\	4a-'\ 4aa-'\	.
8c'\ 8e-'\ 8a-'\	8cc'\ 8ccc'\	.
=28	=28	=28
4c'\ 4e-'\ 4a-'\	4ee-'\ 4eee-'\	.
8r	8r	.
4r	4r	.
8r	8r	.
=29	=29	=29
[2.EE-/ [2.E-/	2.An/ 2.c/ 2.g-/ 2.an/	ff
=30	=30	=30
4EE-/] 4E-/]	4An/ 4c/ 4g-/	.
8r	8r	.
4r	4r	.
*clefG2	*	*
8e-'/ 8g-'/	8an'\ 8aan'\	pp
=31	=31	=31
4d-'/ 4f'/	4b-'\ 4bb-'\	.
8d-'/ 8f'/	8b-'\ 8bb-'\	.
4d-'/ 4f'/	4b-'\ 4bb-'\	.
8d-'/ 8f'/ 8b-'/	8dd-'\ 8ddd-'\	.
=32	=32	=32
4d-'/ 4f'/ 4b-'/	4ff'\ 4fff'\	.
8r	8r	.
4r	4r	.
8r	8r	.
*clefF4	*	*
=33	=33	=33
2.GG-\ 2.G-\	2.dd-\ 2.een\ 2.ddd-\	.
=34	=34	=34
2.G-\ 2.g-\	2.b-\ 2.een\ 2.bb-\	.
=35	=35	=35
*^	*	*
4f/	[2.F\	(4aan\	pp
8c/	.	8ccc\	.
4f/	.	4ff\	.
8e-/	.	8aa\	.
=36	=36	=36	=36
4d-/	2.F\]	4bb-\	.
8B-/	.	8ddd-\	.
4d-/	.	4ff\	.
8en/	.	8bb-\)	.
=37	=37	=37	=37
4f/	[2.F\	(4aan\	.
8c/	.	8ccc\	.
4f/	.	4aa\	.
8e-/	.	8ff\	.
=38	=38	=38	=38
4d-/	2.F\]	4bb-\	.
8B-/	.	8ddd-\	.
4d-/	.	4ff\	.
8en/	.	8bb-\)	.
*v	*v	*	*
=39	=39	=39
4F\ 4f\	8aan'\L	.
.	(8bbn\	.
8r	8ccc\J)	.
4r	8ff\L	.
.	(8gg#\	.
8r	8aa\J)	.
=40	=40	=40
2.r	8cc'\L	.
.	(8een\	.
.	8ff\J)	.
.	8an'\L	.
.	(8bn'\	.
.	8cc\J)	.
=41	=41	=41
8F\	(8f/L	.
[4e-\	8an/	.
.	8cc/J	.
4.e-\_	8ff\L	.
.	8a\	.
.	8cc\J	.
=42	=42	=42
4.e-\]	8f/L	.
.	8cc/	.
.	8an/J	.
(8d\L	8b-\L	.
8c\	8cc\	.
8B-\J)	8dd\J)	.
=43	=43	=43
8F\	(8f/L	.
[4e-\	8an/	.
.	8cc/J	.
4.e-\_	8ff\L	.
.	8a\	.
.	8cc\J	.
=44	=44	=44
4.e-\]	8f/L	.
.	8cc/	.
.	8an/J	.
(8d\L	8b-\L	.
8c\	8cc\	.
8B-\J)	8dd\J)	.
=45	=45	=45
(8c\L	(8f#/L	.
8An\	8an/	.
8c\J	8f#/J	.
8B-\L	8g/L	.
8A\	8a/	.
8G\J)	8b-/J)	.
=46	=46	=46
(8A-\L	(8d/L	.
8F\	8fn/	.
8A-\J	8d/J	.
8G\L	8e-/L	.
8F\	8f/	.
8E-\J)	8g/J)	.
=47	=47	=47
(8F\L	(8Bn/L	.
8D\	8d/	.
8F\J	8B/J	.
8E-\L	8c/L	.
8D\	8d/	.
8C\J)	8e-/J)	.
=48	=48	=48
*^	*	*
(8F/L	4.FF\	(8B-/L	.
8D/	.	8d/	.
8BB-/J)	.	8f/J	.
(8F/L	4.FF\	8e-/L	.
8E-/	.	8c/	.
8C/J)	.	8An/J)	.
*v	*v	*	*
=49	=49	=49
8BB-'\L	4B-/	.
8B-'\	.	.
8c'\J	8r	.
8c#'\L	4r	.
8d'\	.	.
8e-'\J	8r	.
=50	=50	=50
(8en\L	2.r	.
8f\)	.	.
8e-'\J	.	.
8d'\L	.	.
8c'\	.	.
8B-'\J	.	.
=51	=51	=51
8f'\L	8an/	.
8en'\	[4fff\	.
8e-'\J	.	.
8c\L	4.fff\_	.
8An'\	.	.
8F'\J	.	.
=52	=52	=52
(8En\L	4fff\]	.
8F\)	.	.
8E-'\J	8an/	.
8D'/L	8b-'\L	.
8C'/	8cc'\	.
8BB-'/J	8dd'\J	.
=53	=53	=53
8f'\L	8an/	.
8en'\	[4fff\	.
8e-'\J	.	.
8c'\L	4.fff\_	.
8An'\	.	.
8F'\J	.	.
=54	=54	=54
(8En\L	4fff\]	.
8F\)	.	.
8E-'\J	8an/	.
8D'/L	8b-'\L	.
8C'/	8cc'\	.
8BB-'/J	8dd'\J	.
=55	=55	=55
(8AAn\L	(8f#/L	.
8c\	8an/	.
8An\J	8f#/J	.
8B-\L	8g/L	.
8A\	8a/	.
8G\J)	8b-/J)	.
=56	=56	=56
(8A-\L	8d/L	.
8F\	8fn/	.
8A-\J	8d/J	.
8G\L	8e-/L	.
8F\	8f/	.
8E-\J)	8g/J	.
=57	=57	=57
(8F\L	(8Bn/L	.
8D\	8d/	.
8F\J	8B/J	.
8E-\L	8c/L	.
8D\	8d/	.
8C\J)	8e-/J)	.
=58	=58	=58
(8F/L	(8B-/L	.
8D/	8d/	.
8FF/J	8f/J	.
8E-/L	8c/L	.
8C/	8e-/	.
8FF/J)	8an/J)	.
=59	=59	=59
4BBB-/ 4BB-/	4d/ 4b-/	.
8r	8r	.
4.BB-\ [4.F\	(4.d/ 4.dd/	p
=60	=60	=60
*^	*	*
4.An/ 4.C\	2.F\]	4.e-/ 4.cc/	.
4.D\ 4.B-/	.	4.f/ 4.b-/	.
=61	=61	=61	=61
4G/	4E-\	4g/)	.
8r	8r	8r	.
[4.G/	4.C\	(4.e-/ 4.ee-/	.
*v	*v	*	*
=62	=62	=62
*^	*	*
4.D\ 4.B-/	2.G\]	4.f/ 4.dd/	.
[4.c/ 4.E-\	.	4.g/ 4.cc/	.
*v	*v	*	*
=63	=63	=63
4F\ 4c\]	4an/)	.
8r	8r	.
4.F\ 4.f\	4.a\ (4.aan\	.
=64	=64	=64
4.G\ 4.en\	4.b-\ 4.bb-\	.
4.An\ 4.e-\	4.cc\ 4.ccc\	.
=65	=65	=65
4.B-\ 4.d\	4.dd\ 4.ddd\	.
4.An\ 4.c\	[4.ff\ [4.fff\	.
=66	=66	=66
*	*^	*
4.G\ 4.B-\	4.fff/])	8ff\L]	>
.	.	(8gg\	.
.	.	8ff\J)	.
4.C\ (4.B-\	(8eeen/L	4.een\	.
.	8ddd/	.	.
.	8eee/J)	.	.
=67	=67	=67	=67
4F\ 4An\)	4.r	4ff\ 4fff\	.
8r	.	8r	.
4.BB-\ [4.F\ (4.B-\	8r	4.d\	p
.	8dd/L	.	.
.	8dd'/J	.	.
=68	=68	=68	=68
*^	*	*	*
*	*^	*	*	*
4.An/	4.C\	4.F\]	8dd/L	4.e-\	.
.	.	.	8cc/	.	.
.	.	.	8cc'/J	.	.
4.B-/	4.r	4.D\	8r	4.f\	.
.	.	.	8b-'/L	.	.
.	.	.	8b-'/J	.	.
*v	*v	*v	*	*	*
=69	=69	=69	=69
*^	*	*	*
4G/)	4E-\	8an/L	4.r	.
.	.	8g/	.	.
8r	8r	8g'/J	.	.
([4.G/	4.C\	8r	4.e-\	.
.	.	8ee-/L	.	.
.	.	8ee-/J	.	.
*v	*v	*	*	*
=70	=70	=70	=70
*^	*	*	*
4.D\ 4.Bn/	2.G\]	8ee-/L	4.f\	.
.	.	8dd/	.	.
.	.	8dd'/J	.	.
[4.c/) 4.E-\	.	8r	4.g\	.
.	.	8cc'/L	.	.
.	.	8cc'/J	.	.
*v	*v	*	*	*
*	*v	*v	*
=71	=71	=71
4F\ 4c\]	(8b-/L	.
.	8an/)	.
8r	8a'/J	.
8r	4.a\ 4.ff\ (4.aan\	.
8f'\L	.	.
8f'\J	.	.
=72	=72	=72
8f\L	4.b-\ 4.gg\ 4.bb-\	.
8en\	.	.
8e'\J	.	.
8r	4.cc\ 4.aan\ 4.ccc\	.
8e-'\L	.	.
8e-'\J	.	.
=73	=73	=73
*	*^	*
(8e-\L	4dd\ 4bb-\ 4ddd\)	4.r	.
8d\)	.	.	.
8d'\J	8r	.	.
4F\	8r	8r	.
.	8b-'/ 8bb-'/L	8d'\ 8f'\L	.
8r	8b-'/ 8bb-'/J	8d'\ 8f'\J	.
=74	=74	=74	=74
4FF/	8b-/ (8bb-/L	8r	.
.	8an/ 8aan/)	8c\ 8e-\L	.
8r	8a'/ 8aa'/J	8c\ 8e-\J	.
4F\	8r	8r	.
.	8g'/ 8gg'/L	8B-\ 8d\L	.
8r	8g'/ 8gg'/J	8B-\ 8d\J	.
*	*v	*v	*
=75	=75	=75
*^	*	*
8r	4FF\	(8g/ 8gg/L	.
8An/ 8c/L	.	8f/) 8ff/	.
8A/ 8c/J	8r	8f'/ 8ff'/J	.
8r	4F\	8r	.
8G/ 8B-/L	.	8e-'/ 8ee-'/L	.
8G/ 8B-/J	8r	8e-'/ 8ee-'/J	.
=76	=76	=76	=76
8r	4FF\	(8e-/ 8ee-/L	<
8F/ 8An/L	.	8d/) 8dd/	.
8F/ 8A/J	8r	8d'/ 8dd'/J	.
8r	4FF\	8r	.
8E-/ 8G/L	.	8c'/ 8cc'/L	.
8E-/ 8G/J	8r	8c'/ 8cc'/J	.
=77	=77	=77	=77
8r	4FF\	(8c/ 8cc/L	.
8D/ 8F/L	.	8B-/) 8b-/	.
8D/ 8F/J	8r	8B-'/ 8b-'/J	.
8r	4FF\	(8B-/ 8b-/L	.
8C/ 8E-/L	.	8An/) 8an/	.
8C/ 8E-/J	8r	8A'/ 8a'/J	.
=78	=78	=78	=78
8r	4FF\	(8An/ 8an/L	.
8BB-/ 8D/L	.	8G/) 8g/	.
8BB-/ 8D/J	8r	8G'/ 8g'/J	.
8r	4FF\	(8G/ 8g/L	.
8AAn/ 8C/L	.	8F/) 8f/	.
8AA/ 8C/J	8r	8F'/ 8f'/J	.
*v	*v	*	*
=79	=79	=79
8FFF#/ 8CC/ 8FF#/L	(8F/ 8f/L	ff
8FFF#/ 8CC/ 8FF#/	8E-/) 8An/ 8c/ 8e-/	.
8FFF#/ 8CC/ 8FF#/J	8E-/ 8A/ 8c/ 8e-/J	.
8FFF#/ 8CC/ 8FF#/L	8E-/ 8A/ 8c/ 8e-/L	.
8FFF#/ 8CC/ 8FF#/	8E-/ 8A/ 8c/ 8e-/	.
8FFF#/ 8CC/ 8FF#/J	8E-/ 8A/ 8c/ 8e-/J	.
=80	=80	=80
8FFF#/ 8CC/ 8FF#/L	8E-/ 8An/ 8c/ 8e-/L	.
8FFF#/ 8CC/ 8FF#/	8E-/ 8A/ 8c/ 8e-/	.
8FFF#/ 8CC/ 8FF#/J	8E-/ 8A/ 8c/ 8e-/J	.
8FFF#/ 8CC/ 8FF#/L	8E-/ 8A/ 8c/ 8e-/L	.
8FFF#/ 8CC/ 8FF#/	8E-/ 8A/ 8c/ 8e-/	.
8FFF#/ 8CC/ 8FF#/J	8E-/ 8A/ 8c/ 8e-/J	.
=81	=81	=81
4FFF\ 4CC\ 4GG\	4En/ 4G/ 4c/ 4en/	.
8r	8r	.
[4.GG/ 4.E-/	[4.G/ (4.c/	pp
=82	=82	=82
*^	*^	*
4.F/	2.GG\]	4.Bn/	2.G\_	.
4.BBn/	.	4.f/	.	.
*	*	*v	*v	*
=83	=83	=83	=83
4.C/	[2.GG\	4.G/] 4.en/)	.
4.En/	.	[4.G/ 4.c/ ([4.g/	.
=84	=84	=84	=84
*	*	*^	*
4.F/	2.GG\]	4.Bn/	2.G\_ 2.g\]	.
4.BBn/	.	4.f/	.	.
*	*	*v	*v	*
=85	=85	=85	=85
4C/	[2.GG\	4G/] 4en/ 4g/)	.
8r	.	8r	.
4.C/	.	8f#\ (8ff#\L	<
.	.	8g\ 8gg\	.
.	.	8an\ 8aan\J	.
=86	=86	=86	=86
4.BBn/	2.GG\]	8g\ 8gg\L	.
.	.	8fn\ 8ffn\	.
.	.	8en\ 8een\J	>
4.F/	.	8d/ 8dd/L	.
.	.	8c/ 8cc/	.
.	.	8Bn/ 8bn/J)	.
=87	=87	=87	=87
4.En/	[2.GG\	8c/ (8cc/L	.
.	.	8d/ 8dd/	.
.	.	8en/ 8een/J	.
4.C/	.	8f#\ 8ff#\L	.
.	.	8g\ 8gg\	.
.	.	8an\ 8aan\J	.
=88	=88	=88	=88
4.BBn/	2.GG\]	8g\ 8gg\L	>
.	.	8fn\ 8ffn\	.
.	.	8en\ 8een\J	.
4.F/	.	8d/ 8dd/L	.
.	.	8c/ 8cc/	.
.	.	8Bn/ 8bn/J)	.
*v	*v	*	*
=89	=89	=89
4.C\ 4.En\	[4.c/ [4.cc/	p
4.BB-\ 4.G\	8c/] (8cc/L]	.
.	8d/ 8dd/	.
.	8en/ 8een/J	.
=90	=90	=90
4.AAn\ ([4.F\	4f\ 4ff\	.
.	8e-\ 8ee-\	>
4.BB-\ 4.F\] 4.B-\)	4d\ 4dd\	.
.	8e-\ 8ee-\)	.
=91	=91	=91
*^	*	*
(4.F#/ 4.FF#\	2.D/	(4d/ 4dd/	.
.	.	8c/ 8cc/	.
4.G/) 4.GG\	.	4B-/ 4b-/	.
.	.	8d/) 8dd/	.
*v	*v	*	*
=92	=92	=92
4EE-/ 4E-/	4c'/ 4cc'/	.
8r	8B-'/ 8b-'/	.
4FFn/ 4Fn/	4An'/ 4an'/	.
8r	8c'/ 8cc'/	.
=93	=93	=93
8BBB-/ 8BB-/L	8B-/ 8b-/L	.
8BB-'/	8b-'/	.
8BB-'/J	8b-'/J	.
(8BB-/L	(8b-/L	.
8AAn/	8an/	.
8BB-/J)	8b-/J)	.
=94	=94	=94
8DD/ 8D/L	8d'/ 8dd'/L	.
8D'/	8dd'/	.
8D'/J	8dd'/J	.
(8D/L	(8dd\L	.
8C#/	8cc#\	.
8D/J)	8dd\J)	.
=95	=95	=95
8FF'/ 8F'/L	8f'/ 8ff'/L	mf
8F'/	8ff'/	.
8F'/J	8ff'/J	.
(8F\L	(8ff\L	.
8En\	8een\	.
8F\J)	8ff\J)	.
=96	=96	=96
8BB-'\ 8B-'\L	8b-'\ 8bb-'\L	.
8B-'\	8bb-'\	.
8B-'\J	8bb-'\J	.
(8B-\L	(8bb-\L	.
8An\	8aan\	.
8B-\J)	8bb-\J)	.
=97	=97	=97
2.G\ 2.B-\	(16b-\LL	p
.	16cc\	<
.	16b-\	.
.	16an\	.
.	16b-\	.
.	16a\JJ	.
.	16b-\LL	.
.	16bn\	.
.	16cc\	.
.	16cc#\	.
.	16dd\	.
.	16ee-\JJ	.
=98	=98	=98
2.G-\ 2.B-\ 2.d-\ 2.en\	16een\LL	ff
.	16ff\	.
.	16ff#\	.
.	16gg\	.
.	16aa-\	.
.	16aan\	.
!!.	28.bb-\JJ	.
.	16bbn\LL	.
.	16ccc\	.
.	16ccc#\	.
.	16ddd\	.
.	16eee-\	.
.	16eeen\JJ)	.
=99	=99	=99
8F\ 8B-\ 8dn\ 8f\L	4fff\	.
8F\	.	.
8F\J	8r	.
8r	4dd\ 4bb-\ 4ddd\	.
8F\L	.	.
8F\J	8r	.
=100	=100	=100
8r	4ee-\ 4ccc\ 4eee-\	.
8FF/L	.	.
8FF/J	8r	.
8r	4an\ 4cc\ 4ee-\ 4aan\	.
8FF/L	.	.
8FF/J	8r	.
=101	=101	=101
8BBB-'/L	16B-/LL	ff
.	16b-/	.
8BB-'/	16B-/	.
.	16b-/	.
8BB-'/J	16B-/	.
.	16b-/JJ	.
(8BB-/L	16B-/LL	.
.	16b-/	.
8AAn/	16An/	.
.	16an/	.
8BB-/J)	16B-/	.
.	16b-/JJ	.
=102	=102	=102
8DD'/L	16d/LL	.
.	16dd/	.
8D'/	16d/	.
.	16dd/	.
8D'/J	16d/	.
.	16dd/JJ	.
(8D/L	16d/LL	.
.	16dd/	.
8C#/	16c#/	.
.	16cc#/	.
8D/J)	16d/	.
.	16dd/JJ	.
=103	=103	=103
8FF'/L	16f/LL	.
.	16ff/	.
8F'/	16f/	.
.	16ff/	.
8F'/J	16f/	.
.	16ff/JJ	.
(8F\L	16f/LL	.
.	16ff/	.
8En\	16en/	.
.	16een/	.
8F\J)	16f/	.
.	16ff/JJ	.
=104	=104	=104
8BB-'\L	16b-\LL	.
.	16bb-\	.
8B-'\	16b-\	.
.	16bb-\	.
8B-'\J	16b-\	.
.	16bb-\JJ	.
(8B-\L	16b-\LL	.
.	16bb-\	.
8An\	16an\	.
.	16aan\	.
8B-\J)	16b-\	.
.	16bb-\JJ	.
=105	=105	=105
2.GG\ 2.BB-\ 2.G\	(16B-/LL	p
.	16c/	<
.	16B-/	.
.	16An/	.
.	16B-/	.
.	16A/JJ	.
.	16B-/LL	.
.	16Bn/	.
.	16c/	.
.	16c#/	.
.	16d/	.
.	16e-/JJ	.
=106	=106	=106
2.GG-\ 2.BB-\ 2.G-\	16en/LL	.
.	16f/	.
.	16f#/	.
.	16g/	.
.	16a-/	.
.	16an/JJ	.
.	16b-\LL	.
.	16bn\	.
.	16cc\	.
.	16cc#\	.
.	16dd\	.
.	16ee-\JJ	.
=107	=107	=107
2.FF\ 2.BB-\ 2.F\	16een\LL	.
.	16ff\	.
.	16ff#\	.
.	16gg\	.
.	16aa-\	.
.	16aan\JJ	.
.	16bb-\LL	.
.	16bbn\	.
.	16ccc\	.
.	16ddd-\	.
.	16ccc\	.
.	16ddd-\JJ)	.
=108	=108	=108
2.EEn/ 2.BB-/ 2.En/	16ccc\LL	ff
.	16ddd-\	.
.	16ccc\	.
.	16ddd-\	.
.	16ccc\	.
.	16ddd-\JJ	.
.	16ccc\LL	.
.	16ddd-\	.
.	16ccc\	.
.	16ddd-\	.
.	16ccc\	.
.	16ddd-\JJ	.
=109	=109	=109
4FF\ 4BB-\ 4F\	(8dddn\L	.
.	8ccc\)	.
8r	8bb-'\J	.
4F\ 4B-\ 4d\	(8bb-\L	.
.	8aan\)	.
8r	8gg'\J	.
=110	=110	=110
4F\ 4B-\ 4d\	(8ff\L	.
.	8ee-\)	.
8r	8dd'\J	.
4F\ 4c\ 4e-\	(8cc\L	.
.	8ee-\)	.
8r	8an'\J	.
=111	=111	=111
4B-\ 4d\	16b-\LL	.
.	16dd\	.
.	16bb-\	.
.	16dd\	.
8r	16bb-\	.
.	16dd\JJ	.
[4.BB-/	16b-\LL	.
.	16dd\	.
.	16bb-\	.
.	16dd\	.
.	16bb-\	.
.	16dd\JJ	.
=112	=112	=112
2.BB-/_	16cc-\LL	.
.	16dd\	.
.	16aa-\	.
.	16dd\	.
.	16aa-\	.
.	16dd\JJ	.
.	16b-\LL	.
.	16dd\	.
.	16bb-\	.
.	16dd\	.
.	16bb-\	.
.	16dd\JJ	.
=113	=113	=113
4.BB-/]	16an\LL	.
.	16dd\	.
.	16ccc-\	.
.	16dd\	.
.	16ccc-\	.
.	16dd\JJ	.
[4.B-\	16b-\LL	.
.	16dd\	.
.	16bb-\	.
.	16dd\	.
.	16bb-\	.
.	16dd\JJ	.
=114	=114	=114
2.B-\_	16cc-\LL	.
.	16dd\	.
.	16aa-\	.
.	16dd\	.
.	16aa-\	.
.	16dd\JJ	.
.	16a-\LL	.
.	16dd\	.
.	16ccc-\	.
.	16dd\	.
.	16ccc-\	.
.	(16dd\JJ	.
=115	=115	=115
4.B-\]	16g\LL	.
.	16ee-\)	.
.	16bb-\	.
.	16ee-\	.
.	16bb-\	.
.	16ee-\JJ	.
[4.BB-/	16a-\LL	.
.	16ee-\	.
.	16aa-\	.
.	16ee-\	.
.	16aa-\	.
.	16ee-\JJ	.
=116	=116	=116
2.BB-/_	16b-\LL	.
.	16ee-\	.
.	16gg\	.
.	16ee-\	.
.	16gg\	.
.	16ee-\JJ	.
.	16b-\LL	.
.	16ee-\	.
.	16gg-\	.
.	16ee-\	.
.	16gg-\	.
.	16ee-\JJ	.
=117	=117	=117
4.BB-/]	16an\LL	.
.	16ee-\	.
.	16gg-\	.
.	16ee-\	.
.	16gg-\	.
.	16ee-\JJ	.
[4.BBB-/	16a\LL	.
.	16ee-\	.
.	16ff\	.
.	16ee-\	.
.	16ff\	.
.	16ee-\JJ	.
=118	=118	=118
2.BBB-'/_	16an\LL	.
.	16ee-\	.
.	16ff\	.
.	16ee-\	.
.	16ff\	.
.	16ee-\JJ	.
.	16a\LL	.
.	16ee-\	.
.	16ff\	.
.	16ee-\	.
.	16ff\	.
.	16ee-\JJ	.
=119	=119	=119
4.BBB-/]	16b-\LL	.
.	16dd\	.
.	16ff\	.
.	16dd\	.
.	16ff\	.
.	16dd\JJ	.
[4.BB-/	16f\LL	.
.	16b-\	.
.	16dd\	.
.	16b-\	.
.	16dd\	.
.	16b-\JJ	.
=120	=120	=120
2.BB-/_	16f\LL	.
.	16cc-\	.
.	16dd\	.
.	16cc-\	.
.	16dd\	.
.	16cc-\JJ	.
.	16f\LL	.
.	16b-\	.
.	16dd\	.
.	16b-\	.
.	16dd\	.
.	16b-\JJ	.
=121	=121	=121
4.BB-/]	16f\LL	.
.	16a-\	.
.	16dd\	.
.	16a-\	.
.	16dd\	.
.	16a-\JJ	.
[4.B-\	16f\LL	.
.	16b-\	.
.	16dd\	.
.	16b-\	.
.	16dd\	.
.	16b-\JJ	.
=122	=122	=122
2.B-\_	16f/LL	.
.	16cc-/	.
.	16dd/	.
.	16cc-/	.
.	16dd/	.
.	16cc-/JJ	.
.	16f/LL	.
.	16a-/	.
.	16dd/	.
.	16a-/	.
.	16dd/	.
.	16a-/JJ	.
=123	=123	=123
4.B-\]	16e-/LL	.
.	16g/	.
.	16ee-/	.
.	16g/	.
.	16ee-/	.
.	16g/JJ	.
[4.BB-/	16e-/LL	.
.	16a-/	.
.	16ee-/	.
.	16a-/	.
.	16ee-/	.
.	16a-/JJ	.
=124	=124	=124
2.BB-/_	16e-/LL	.
.	16g/ 16b-/	.
.	16ee-/	.
.	16g/ 16b-/	.
.	16ee-/	.
.	16g/ 16b-/JJ	.
.	16e-/LL	.
.	16g-/	.
.	16b-/	.
.	16g-/	.
.	16b-/	.
.	16g-/JJ	.
=125	=125	=125
4.BB-/]	16c/LL	.
.	16g-/	.
.	16b-/	.
.	16g-/	.
.	16b-/	.
.	16g-/JJ	.
[4.BBB-/	16c/LL	.
.	16g-/	.
.	16an/	.
.	16g-/	.
.	16a/	.
.	16g-/JJ	.
=126	=126	=126
2.BBB-/_	16c/LL	.
.	16f/	.
.	16an/	.
.	16f/	.
.	16a/	.
.	16f/JJ	.
.	16c/LL	.
.	16e-/	.
.	16a/	.
.	16e-/	.
.	16a/	.
.	16e-/JJ	.
=127	=127	=127
4BBB-/]	4d/ 4b-/	.
[8D\	[8d/	.
4D\]	(4d/]	.
8BB-/	8B-/	.
=128	=128	=128
*^	*^	*
4r	4FF'\	4r	4F/)	.
[8c/	[8F\	([8ee-/	[8e-\	.
4c/]	4.F\]	4ee-/]	4.e-\]	.
8An/	.	8cc/	.	.
*	*	*v	*v	*
=129	=129	=129	=129
4B-/	4BB-\	4d/ 4dd/)	.
8r	[8D\	[8d/	.
4.r	4D\]	(4d/]	.
.	8BB-/	8B-/	.
=130	=130	=130	=130
*	*	*^	*
4FF'\	4r	4r	4F'/)	.
[8c/	8F\	[8ff/	[8ee-\	.
(4c/]	4.F\	4.ff/_	4ee-\]	.
8An/	.	.	8cc\	.
*v	*v	*	*	*
=131	=131	=131	=131
4BB-'\ 4B-'\)	4ff/]	4dd\	.
[8D\	8r	[8d/	.
(4D\]	4.r	4d/]	.
8BB-\	.	8B-/	.
=132	=132	=132	=132
4FF'\)	4r	4F'/	.
[8F\ [8c\	[8ee-/ [8eee-/	[8e-\ [8f\	.
4F\] 4c\]	4ee-/] 4eee-/]	4e-\] 4f\]	.
8F\ 8An\	8cc/ 8ccc/	8e-\	.
*	*v	*v	*
=133	=133	=133
4B-'\ 4d'\	4b-'\ 4bb-'\	.
8f\	8ff'\ 8fff'\	.
4d\	4dd'\ 4ddd'\	.
8B-\	8b-'\ 8bb-'\	.
=134	=134	=134
4F\	4f'\ 4ff'\	.
8D\	8d'/ 8dd'/	.
4BB-/	4B-'/ 4b-'/	.
8FF/	8F'/ 8f'/	.
=135	=135	=135
*^	*	*
4BB-/	4.r	4B-/ 4b-/	.
8r	.	8r	.
4D/ 4F/ 4B-/	4BBB-\ 4BB-\	4.r	.
8r	8r	.	.
=136	=136	=136	=136
4D/ 4F/ 4B-/	4BBB-\ 4BB-\	2.r	.
8r	8r	.	.
4r	4r	.	.
8r	8r	.	.
*v	*v	*	*
=137:|!	=137:|!	=137:|!
*>B	*>B	*>B
8GGG\L	2.F/ 2.Bn/ 2.d/	ff
8GG\	.	.
8GG\J	.	.
8GG\L	.	.
8GG\	.	.
8GG\J	.	.
=138	=138	=138
8GG\L	4D/ 4F/ 4Bn/	.
8GG\	.	.
8GG\J	8r	.
8GG\L	4r	.
8GG\	.	.
8GG\J	8r	.
=139	=139	=139
8GGG/L	2.Bn/ 2.d/ 2.f/	ff
8GG/	.	.
8GG/J	.	.
8GG/L	.	.
8GG/	.	.
8GG/J	.	.
=140	=140	=140
8GG/L	4F/ 4Bn/ 4d/	.
8GG/	.	.
8GG/J	8r	.
8GG/L	4r	.
8GG/	.	.
8GG/J	8r	.
=141	=141	=141
8CC/ 8C/	4E-/ 4G/ 4c/	.
(8D\L	.	.
8E-\J	8r	.
8F\L	4r	.
8G\	.	.
8A-\J	8r	.
=142	=142	=142
8Bn\L	2.r	.
8c\	.	.
8d\J	.	.
8e-\L	.	.
8f\	.	.
8g\J)	.	.
=143	=143	=143
8f\L	(8bn\L	.
8e-\	8cc\	.
8d\J	8dd\J	.
8c\L	8ee-\L	.
8Bn\	8ff\	.
8A-\J	8gg\J	.
=144	=144	=144
8G\L	8aa-\L	.
8F\	8bbn\	.
8E-\J	8ccc\J	.
8D/L	8ddd\L	.
8C/	8eee-\	.
8BBn/J	8fff\J)	.
=145	=145	=145
4C/	(8eee-\L	.
.	8ddd-\	.
8r	8ccc\J	.
4r	8bb-\L	.
.	8aa-\	.
8r	8gg\J	.
=146	=146	=146
2.r	8ff\L	.
.	8ee-\	.
.	8dd-\J	.
.	8cc\L	.
.	8b-\	.
.	8a-\J)	.
=147	=147	=147
8d-\L	(8g\L	.
8c\	8a-\	.
8B-\J	8b-\J	.
8A-\L	8cc\L	.
8G\	8dd-\	.
8F\J	8ee-\J	.
=148	=148	=148
8E-/L	8ff\L	.
8D-/	8gg\	.
8C/J	8aa-\J	.
8BB-/L	8bb-\L	.
8AA-/	8ccc\	.
8GG/J	8ddd-\J)	.
=149	=149	=149
4AA-/	(8ccc\L	.
.	8bb-\	.
8r	8aa-\J	.
4r	8gg\L	.
.	8ff\	.
8r	8ee-\J	.
=150	=150	=150
2.r	8dd-\L	.
.	8cc\	.
.	8b-\J	.
.	8a-/L	.
.	8g/	.
.	8f/J)	.
=151	=151	=151
8B-\L	(8en/L	<
8A-\	8f/	.
8G\J	8g/J	.
8F\L	8a-/L	.
8En\	8b-/	.
8D-\J	8cc/J	.
=152	=152	=152
8C/L	8dd-\L	.
8BB-/	8een\	.
8AA-/J	8ff\J	.
8GG/L	8gg\L	.
8FF/	8aa-\	.
8EEn/J	8bb-\J)	.
=153	=153	=153
*^	*	*
4r	4FF/	4aa-'\	.
([8A-/	[8AA-\	8r	.
4A-/]	4AA-\]	4r	.
8F/	8FF\	8r	.
=154	=154	=154	=154
*	*	*^	*
4C'/)	4CC'\	4r	4r	.
[8B-/	[8C\	[8dd-/	[8en\	.
(4B-/]	4.C\]	4dd-/]	4.e\]	.
8G/	.	8b-/	.	.
*	*	*v	*v	*
=155	=155	=155	=155
4A-'/)	4F\	4f/ 4a-/	.
[8A-/	[8AA-\	8r	.
(4A-/]	4AA-\]	4.r	.
8F/	8FF\	.	.
=156	=156	=156	=156
*	*	*^	*
*	*	*	*^	*
4C'/)	4CC'\	4r	4r	4r	.
[8B-/	[8C\	[8een/	[8dd-\	[8en\	.
(4B-/]	4.C\]	4.ee/]	4dd-\]	4e\]	.
8G/	.	.	8b-/	8r	.
*	*	*v	*v	*v	*
=157	=157	=157	=157
4A-/)	4F'\	4f'/ 4a-'/ 4ff'/	.
[8A-/	[8AA-\	8r	.
(4A-/]	4AA-\]	4.r	.
8F/	8FF\	.	.
=158	=158	=158	=158
*	*	*^	*
4F#'/)	4FF#'\	4r	4r	.
[8c/	[8F#\	[8ee-/	[8e-\	.
(4c/]	4.F#\]	4ee-/]	4.e-\]	.
8An/	.	8cc/	.	.
*	*	*v	*v	*
=159	=159	=159	=159
4B-/)	4G\	4d/ 4b-/	.
[8B-/	[8BB-\	8r	.
(4B-/]	4BB-\]	4r	.
8G/	8GG\	8r	.
=160	=160	=160	=160
*	*	*^	*
4D'/)	4DD'\	4r	4r	.
[8c/	[8D\	[8f#/ [8ff#/	[8ee-\	.
4c/]	4.D\]	4ee-/]	4.f#/] 4.ff#/]	.
8An/	.	8cc\	.	.
*	*	*v	*v	*
=161	=161	=161	=161
4B-/	4G\	4g'\ 4b-'\ 4gg'\	.
[8B-/	[8BB-\	8r	.
4B-/]	(4BB-\]	4r	.
8G/	8GG\	8r	.
=162	=162	=162	=162
4E-'/	4EE-\)	4r	.
*v	*v	*	*
*clefG2	*	*
*^	*	*
[8e-/ [8g/	8r	[8cc#\ [8gg\ [8ccc#\	.
4e-/] 4g/]	4.r	4cc#\] 4gg\] 4ccc#\]	.
8e-/ 8g/	.	8cc#\ 8gg\ 8ccc#\	.
*v	*v	*	*
=163	=163	=163
4d/ 4an/	4dd\ 4ff#\ 4ddd\	.
*clefF4	*	*
[8DD/ 8D/	[8d/	.
4DD/] 4D/	4d/]	.
8DD/ 8D/	8d/	.
=164	=164	=164
4EE-/ 4E-/	4e-/	.
*clefG2	*	*
[8e-/ 8g/	[8cc#\ [8gg\ [8ccc#\	ff
4e-/] 4g/	4cc#\] 4gg\] 4ccc#\]	.
8e-/ 8g/	8cc#\ 8gg\ 8ccc#\	.
=165	=165	=165
4d/ 4f#/ 4an/	4dd\ 4ff#\ 4ddd\	.
8r	[8dd\	p
4r	(4dd\]	.
8r	8cc#\	.
=166	=166	=166
2.r	4dd'\)	.
.	[8dd\	.
.	(4dd\]	.
.	8cc#\	.
*clefF4	*	*
=167	=167	=167
4D#\ 4F#\ 4An\ 4c\	4ccn'\)	.
8r	[8cc\	.
4r	(4cc\]	>
8r	8bn\	.
=168	=168	=168
2.r	4cc'\)	.
.	[8cc\	.
.	(4cc\]	.
.	8bn\)	.
=169	=169	=169
*k[]	*k[]	*k[]
8EE/L	[2.c/ [2.e/ 2.cc/	pp
8E/	.	.
8E/J	.	.
8E\L	.	.
8E\	.	.
8E\J	.	.
=170	=170	=170
8E\L	4c/] 4e/] 4a/	.
8E\	.	.
8E\J	8r	.
8E\L	4r	.
8E\	.	.
8E\J	8r	.
=171	=171	=171
8EE/L	2.d/ 2.e/ (2.g#/ 2.b/ 2.dd/	.
8E/	.	.
8E/J	.	.
8E\L	.	.
8E\	.	.
8E\J	.	.
=172	=172	=172
8E\L	4d/ 4e/) 4g#/	.
8E\	.	.
8E\J	8r	.
8E\L	4r	.
8E\	.	.
8E\J	8r	.
=173	=173	=173
*^	*	*
8AA/L	(4.AA\	[4.c/ [4.cc/	.
8E/	.	.	.
8E/J	.	.	.
8C/L	4.AA\	4c/] 4cc/]	.
8E/	.	.	.
8E/J	.	8e/ 8ee/	.
=174	=174	=174	=174
8BB/L	4.BB\	4e/ 4ee/	.
8E/	.	.	.
8E/J	.	8d/ 8dd/	.
8GG#/L)	4.GG#\	4c/ 4cc/	.
8E/	.	.	.
8E/J	.	8B/ 8b/	.
=175	=175	=175	=175
8AA/L	4.AA\	[4.c/ [4.cc/	.
8E/	.	.	.
8E/J	.	.	.
8C/L	4.AA\	4c/] 4cc/]	.
8E/	.	.	.
8E/J	.	8e/ 8ee/	.
=176	=176	=176	=176
8BB/L	4.BB\	(4e/ 4ee/	.
8E/	.	.	.
8E/J	.	8d/ 8dd/	.
8GG#/L	4.GG#\	4c/ 4cc/	.
8E/	.	.	.
8E/J	.	8B/) 8b/	.
*v	*v	*	*
=177	=177	=177
8AA\L	[2.f/ [2.a/ 2.dd/ 2.ff/	ff
8A\	.	.
8A\J	.	.
8A\L	.	.
8A\	.	.
8A\J	.	.
=178	=178	=178
8A\L	4f/] 4a/] 4dd/	.
8A\	.	.
8A\J	8r	.
8A\L	4r	.
8A\	.	.
8A\J	8r	.
=179	=179	=179
8AA\L	[2.g/ [2.a/ 2.cc#/ 2.ee/ 2.gg/	ff
8A\	.	.
8A\J	.	.
8A\L	.	.
8A\	.	.
8A\J	.	.
=180	=180	=180
8A\L	4g/] 4a/] 4cc#/	.
8A\	.	.
8A\J	8r	.
8A\L	4r	.
8A\	.	.
8A\J	8r	.
=181	=181	=181
*^	*	*
(8D/L	4.D\	[4.f\ [4.ff\	p
8A/	.	.	.
8A/J	.	.	.
8F/L	4.D\	4f\] (4ff\]	.
8A/	.	.	.
8A/J	.	8a\ 8aa\)	.
=182	=182	=182	=182
8E/L	4.E\	4a\ 4aa\	.
8A/	.	.	.
8A/J	.	8g\ 8gg\	.
8C#/L)	4.C#\	4f\ 4ff\	.
8A/	.	.	.
8A/J	.	8e\ 8ee\	.
=183	=183	=183	=183
8D/L	(4.D\	[4.f\ [4.ff\	.
8A/	.	.	.
8A/J	.	.	.
8F/L	4.D\	4f\] (4ff\]	.
8A/	.	.	.
8A/J	.	8a\ 8aa\)	.
=184	=184	=184	=184
8E/L	4.E\	4a\ 4aa\	.
8A/	.	.	.
8A/J	.	8g\ 8gg\	.
8C#/L)	4.C#\	4f\ 4ff\	.
8A/	.	.	.
8A/J	.	8e\ 8ee\	.
*v	*v	*	*
=185	=185	=185
[2.D\ [2.A\	[2.f\ (2.ff\	p
=186	=186	=186
4D\] 4A\]	4f/] 4a/)	.
8r	8r	.
4r	4r	.
8r	8r	.
=187	=187	=187
[2.D\ [2.B-\	[2.f\ (2.ff\	pp
=188	=188	=188
4D\] 4B-\]	4f/] 4a-/)	.
8r	8r	.
4r	4r	.
8r	8r	.
=189	=189	=189
*k[b-e-a-]	*k[b-e-a-]	*k[b-e-a-]
8EE-\L	2.G/ 2.B-/ 2.e-/ 2.g/	ff
8E-\	.	.
8E-\J	.	.
8E-\L	.	.
8E-\	.	.
8E-\J	.	.
=190	=190	=190
8E-\L	4G/ 4B-/ 4e-/	.
8E-\	.	.
8E-\J	8r	.
8E-\L	4r	.
8E-\	.	.
8E-\J	8r	.
=191	=191	=191
8EE-\L	2.B-/ 2.e-/ 2.g/ 2.b-/	ff
8E-\	.	.
8E-\J	.	.
8E-\L	.	.
8E-\	.	.
8E-\J	.	.
=192	=192	=192
8E-\L	4G/ 4B-/ 4e-/ 4g/	.
8E-\	.	.
8E-\J	8r	.
8E-\L	4r	.
8E-\	.	.
8E-\J	8b-\	p
=193	=193	=193
*^	*	*
[2.e-/	4.E-\ 4.G\	(8ee-\L	.
.	.	8dd\	.
.	.	8ff\J	.
.	4.F\ 4.A-\	8ee-\L	.
.	.	8dd\	.
.	.	8ff\J	.
*v	*v	*	*
=194	=194	=194
4G\ 4B-\ 4e-\]	8ee-\L	.
.	8dd\	.
8r	8ff\J	.
4r	8ee-\L	.
.	8dd\	.
8r	8cc\J)	.
*clefG2	*	*
=195	=195	=195
*^	*	*
[2.b-/	4.B-\ 4.d\	(8aa-\L	.
.	.	8gg\	.
.	.	8bb-\J	.
.	4.c\ 4.e-\	8aa-\L	.
.	.	8gg\	.
.	.	8bb-\J	.
*v	*v	*	*
=196	=196	=196
4d/ 4f/ 4b-/]	8aa-\L	.
.	8gg\	.
8r	8bb-\J	.
4r	8aa-\L	.
.	8gg\	.
8r	8ff\J)	<
=197	=197	=197
*^	*	*
[2.ee-/	4.e-\ 4.g\	(8eee-\L	.
.	.	8ddd\	.
.	.	8fff\J	.
.	4.f\ 4.a-\	8eee-\L	.
.	.	8ddd\	.
.	.	8fff\J	.
=198	=198	=198	=198
4.ee-/]	4.g\ 4.b-\	8eee-\L	.
.	.	8ddd\	.
.	.	8fff\J	.
[4.ee-/	4.g\ 4.b-\ 4.dd-\	8eee-\L	>
.	.	8ddd-\	.
.	.	8ccc\J	.
*v	*v	*	*
=199	=199	=199
4a-\ 4cc\ 4ee-\]	8bbn\L	.
.	8ccc\	.
8r	8bb-\J	.
4r	8aa-\L	.
.	8gg\	.
8r	8ff\J	.
=200	=200	=200
4B-/ 4e-/ 4g/	8ee-\L	.
.	8dd\	.
8r	8ff\J	.
4B-/ 4f/ 4a-/	8aa-\L	.
.	8ff\	.
8r	8dd\J)	.
*clefF4	*	*
=201	=201	=201
8e-\L	4ee-\	.
8d\	.	.
8f\J	8r	.
8e-\L	[4.g\ [4.ee-\ ([4.gg\	.
8d\	.	.
8f\J	.	.
=202	=202	=202
8e-\L	4.g\] 4.ee-\] 4.gg\]	.
8d\	.	.
8f\J	.	.
8e-\L	4.a-\ 4.ee-\ 4.aa-\	<
8d-\	.	.
8c\J	.	.
=203	=203	=203
8B-\L	4.b-\ 4.ee-\ 4.bb-\	.
8A-\	.	.
8G\J	.	.
8F\L	4.cc\ 4.ee-\ 4.ccc\	.
8E-\	.	.
8D-\J	.	.
=204	=204	=204
8C/L	4.dd-\ 4.ee-\ 4.ddd-\	.
8BB-/	.	.
8AA-/J	.	.
8GG/L	4.ee-\ 4.eee-\)	.
8FF/	.	.
8EE-/J	.	.
=205	=205	=205
4AAA-/ 4EE-/ 4AA-/	8cc\ (8ccc\L	f
.	8eee-\	.
8r	8ddd-\J	.
[4.BBB-/ [4.EE-/ [4.BB-/	8ccc\L	.
.	8bb-\	.
.	8aa-\J	.
=206	=206	=206
2.BBB-/_ 2.EE-/_ 2.BB-/_	8gg\L	.
.	8ff\	.
.	8ee-\J	.
.	8dd-\L	.
.	8cc\	.
.	8b-\J	.
=207	=207	=207
2.BBB-/] 2.EE-/] 2.BB-/]	8a-/L	.
.	8g/	.
.	8f/J	.
.	8e-/L	.
.	8dn/	.
.	8f/J	.
=208	=208	=208
2.GGG/ 2.EE-/ 2.GG/	8e-/L	.
.	8d/	.
.	8f/J	.
.	8e-/L	.
.	8f/	.
.	8d-/J)	.
=209	=209	=209
4AAA-/ 4EE-/ 4AA-/	8c/	.
.	(8ccc\L	ff
8r	8eee-\J)	.
[4.BBB-/ [4.EE-/ [4.BB-/	(8ddd-\L	.
.	8ccc\)	.
.	8bb-'\J	.
=210	=210	=210
2.BBB-/_ 2.EE-/_ 2.BB-/_	(8aa-\L	.
.	8gg\)	.
.	8ff'\J	.
.	(8ee-\L	.
.	8dd-\)	.
.	8cc'\J	.
=211	=211	=211
2.BBB-/] 2.EE-/] 2.BB-/]	(8b-/L	.
.	8a-/)	.
.	8g'/J	.
.	(8f/L	.
.	8e-/)	.
.	8dn'/J	.
=212	=212	=212
2.GGG/ 2.EE-/ 2.GG/	(8e-/L	.
.	8f/	.
.	8d/J	.
.	8e-/L	.
.	8f/	.
.	8d-/J)	.
=213	=213	=213
[2.AAA-/ [2.AA-/	(8c/L	.
.	8d-/	.
.	8Bn/J	.
.	8c/L	.
.	8d-/	.
.	8dn/J	.
=214	=214	=214
4.AAA-/] 4.AA-/]	8e-/L	.
.	8en/	.
.	8f/J	.
4.AAAn/ 4.AAn/	8g-/L	.
.	8f/	.
.	8e-/J)	.
=215	=215	=215
*^	*	*
*	*^	*	*
4r	[2.BB-\	4BBB-\	(4d/	.
8r	.	8r	8f/	.
4r	.	4r	4d/	.
8A-/	.	8r	8B-/	.
*	*v	*v	*	*
=216	=216	=216	=216
4G-/	2.BB-\_	4e-/	.
8E-/	.	8g-/	.
4G-/	.	4B-/	.
8An/	.	8e-/)	.
*v	*v	*	*
=217	=217	=217
4BB-'\] 4B-'\	4d'/	.
8f\	(8dd\	.
4d'\	4bb-\	.
8B-\	8aa-\	.
=218	=218	=218
4e-\	4gg-\	.
8g-\	8ee-\	.
4B-\	4gg-\	.
8e-\	8aan\)	.
=219	=219	=219
4B-\ 4d\	8bb-'\L	.
.	(8eeen\	.
8r	8fff\J)	.
4r	8bb-'\L	.
.	(8ccc#\	.
8r	8ddd\J)	.
=220	=220	=220
2.r	8ff'\L	.
.	(8aan\	.
.	8bb-\J)	.
.	8dd'\L	.
.	(8een\	.
.	8ff\J)	.
*clefG2	*	*
=221	=221	=221
8B-/	(8cc#\L	.
[4a-/	8dd\	.
.	8b-\J	.
4.a-/_	8cc#\L	.
.	8dd\	.
.	8b-\J	.
=222	=222	=222
4.a-/]	8cc#\L	.
.	8dd\	.
.	8b-\J	.
(8g/L	8ee-\L	.
8f/	8ff\	.
8e-/J)	8gg\J)	.
=223	=223	=223
8B-/	(8cc#\L	.
[4a-/	8dd\	.
.	8b-\J	.
4.a-/_	8cc#\L	.
.	8dd\	.
.	8b-\J	.
=224	=224	=224
4.a-/]	8cc#\L	.
.	8dd\	.
.	8b-\J	.
(8g/L	8ee-\L	.
8f/	8ff\	.
8e-/J)	8gg\J)	.
*clefF4	*	*
=225	=225	=225
(8f\L	(8bn\L	.
8d\	8dd\	.
8f\J	8b\J	.
8e-\L	8cc\L	.
8d\	8dd\	.
8c\J)	8ee-\J)	.
=226	=226	=226
(8d-\L	(8g/L	.
8B-\	8b-/	.
8d-\J	8g/J	.
8c\L	8a-/L	.
8B-\	8b-/	.
8A-\J)	8cc/J)	.
=227	=227	=227
(8B-\L	(8en/L	.
8G\	8g/	.
8B-\J	8e/J	.
8A-\L	8f/L	.
8G\	8g/	.
8F\J)	8a-/J)	.
=228	=228	=228
*^	*	*
(8B-/L	4.BB-\	(8e-/L	.
8G/	.	8g/	.
8E-/J	.	8b-/J	.
8B-/L	4.BB-\	8a-/L	.
8A-/	.	8f/	.
8F/J)	.	8d/J)	.
*v	*v	*	*
=229	=229	=229
8E-'\ 8G'\	4e-/	.
8e-'\L	.	.
8f'\J	8r	.
(8f#\L	4r	.
8g\)	.	.
8fn'\J	8r	.
=230	=230	=230
8e-'\L	2.r	.
8g'\	.	.
8f'\J	.	.
8e-'\L	.	.
8d'\	.	.
8c'\J	.	.
=231	=231	=231
8B-'\L	8d/	.
8An'\	[4bb-\	.
8A-'\J	.	.
8F'/L	4.bb-\_	.
8D'/	.	.
8BB-'/J	.	.
=232	=232	=232
(8AAn/L	4bb-\]	.
8BB-/)	.	.
8AA-'/J	8d'/	.
8GG'/L	8e-'/L	.
8FF'/	8f'/	.
8EE-'/J	8g'/J	.
=233	=233	=233
8B-'\L	8d/	.
8An'\	[4bb-\	.
8A-'\J	.	.
8F'\L	4.bb-\_	.
8D'\	.	.
8BB-'\J	.	.
=234	=234	=234
(8AAn/L	4bb-\]	.
8BB-/)	.	.
8AA-'/J	8d'/	.
8GG'/L	8e-'/L	.
8FF'/	8f'/	.
8EE-'/J	8g'/J	.
=235	=235	=235
(8BBn\L	(8f\L	.
8Bn\	8dd\	.
8d\J	8ff\J	.
8c\L	8ee-\L	.
8d\	8dd\	.
8e-\J)	8cc\J)	.
=236	=236	=236
(8G\L	(8dd-\L	.
8B-\	8b-\	.
8G\J	8dd-\J	.
8A-\L	8cc\L	.
8B-\	8b-\	.
8c\J)	8a-\J)	.
=237	=237	=237
(8En\L	(8b-/L	.
8G\	8g/	.
8E\J	8b-/J	.
8F\L	8a-/L	.
8G\	8g/	.
8A-\J)	8f/J)	.
=238	=238	=238
(8B-\L	(8e-/L	.
8G\	8g/	.
8BB-\J	8b-/J	.
8A-\L	8f/L	.
8F\	8a-/	.
8BB-\J	8dd/J)	.
=239	=239	=239
4E-\) 4G\	4g/ 4ee-/	.
8r	8r	.
4.EE-/ [4.BB-/ (4.E-/	4.G/ 4.g/	p
=240	=240	=240
*^	*	*
2.BB-\]	4.FF/ 4.D/	4.A-/ 4.f/	.
.	4.GG/ 4.E-/	4.B-/ 4.e-/	.
*v	*v	*	*
=241	=241	=241
4AA-/ 4C/)	4c/	.
8r	8r	.
4.FF/ [4.C/ (4.F/	4.A-/ 4.a-/	.
=242	=242	=242
*^	*	*
4.En/ 4.GG\	2.C/]	4.B-/ 4.g/	.
[4.F/ 4.AA-\	.	4.c/ 4.f/	.
=243	=243	=243	=243
4F/])	4BB-\	4d/	.
8r	8r	8r	.
4.r	(4.B-\	4.b-\ 4.dd\	.
*v	*v	*	*
=244	=244	=244
4.c\	4.an\ 4.ee-\	<
4.d\	4.a-\ 4.ff\	.
=245	=245	=245
4.e-\	4.g\ 4.gg\	.
4.d\ 4.f\	[4.b-\ [4.bb-\	.
=246	=246	=246
*	*^	*
4.c\ 4.e-\	8bb-/L]	4.b-\]	>
.	8ccc/	.	.
.	8bb-/J	.	.
4.F\ 4.e-\	8aan/L	8an\L	.
.	8gg/	8g\	.
.	8aa/J	8a\J	.
=247	=247	=247	=247
4B-\ 4d\)	4bb-/	4b-\	.
8r	8r	8r	.
4.E-\ (4.B-\	8r	4.g\	p
.	8gg'/L	.	.
.	8gg'/J	.	.
=248	=248	=248	=248
*^	*	*	*
2.B-/	4.F\ 4.d\	8gg/L	4.a-\	.
.	.	8ff/	.	.
.	.	8ff'/J	.	.
.	4.G\ 4.e-\	8r	4.b-\	.
.	.	8ee-/L	.	.
.	.	8ee-'/J	.	.
*v	*v	*	*	*
=249	=249	=249	=249
4A-\ 4c\)	8dd/L	4.r	.
.	8cc/	.	.
8r	8cc'/J	.	.
4.F\ (4.c\	8r	4.a-\	.
.	8aa-'/L	.	.
.	8aa-'/J	.	.
=250	=250	=250	=250
*^	*	*	*
2.c/	4.G\ 4.en\)	8aa-/L	4.b-\	.
.	.	8gg/	.	.
.	.	8gg'/J	.	.
.	4.A-\ [4.f\	8r	4.cc\	.
.	.	8ff'/L	.	.
.	.	8ff'/J	.	.
*v	*v	*	*	*
*	*v	*v	*
=251	=251	=251
4B-\ 4f\]	(8ee-\L	.
.	8dd\)	.
8r	8dd'\J	.
*clefG2	*	*
8r	4.dd\ (4.bb-\	.
8b-'/L	.	.
8b-'/J	.	.
=252	=252	=252
8b-/L	4.ee-\ 4.ccc\	.
8an/	.	.
8a'/J	.	.
8r	4.ff\ 4.ddd\	.
8a-'/L	.	.
8a-'/J	.	.
=253	=253	=253
*	*^	*
(8a-/L	4gg\ 4eee-\)	4.r	.
8g/)	.	.	.
8g'/J	8r	.	.
*clefF4	*	*	*
4B-\	8r	8r	.
.	8ee-/ 8eee-/L	8g\ 8b-\L	.
8r	8ee-/ 8eee-/J	8g\ 8b-\J	.
=254	=254	=254	=254
4BB-/	8ee-/ (8eee-/L	8r	.
.	8dd/ 8ddd/)	8f\ 8a-\L	.
8r	8dd'/ 8ddd'/J	8f\ 8a-\J	.
4B-\	8r	8r	.
.	8cc'/ 8ccc'/L	8e-\ 8g\L	.
8r	8cc'/ 8ccc'/J	8e-\ 8g\J	.
=255	=255	=255	=255
4BB-\	8cc/ (8ccc/L	8r	.
.	8b-/ 8bb-/	8d\ 8f\L	.
8r	8b-'/ 8bb-'/J)	8d\ 8f\J	.
4B-\	8r	8r	.
.	8a-'/ 8aa-'/L	8c\ 8e-\L	.
8r	8a-'/ 8aa-'/J	8c\ 8e-\J	.
=256	=256	=256	=256
*^	*	*	*
4.r	4BB-\	8a-/ (8aa-/L	8r	<
.	.	8g/ 8gg/)	8B-\ 8d\L	.
.	8r	8g'/ 8gg'/J	8B-\ 8d\J	.
8r	4BB-\	8r	4.r	.
8A-/ 8c/L	.	8f'/ 8ff'/L	.	.
8A-/ 8c/J	8r	8f/ 8ff/J	.	.
*	*	*v	*v	*
=257	=257	=257	=257
8r	4BB-\	(8f/ 8ff/L	.
8G/ 8B-/L	.	8e-/) 8ee-/	.
8G/ 8B-/J	8r	8e-'/ 8ee-'/J	.
8r	4BB-\	(8e-/ 8ee-/L	.
8F/ 8A-/L	.	8d/) 8dd/	.
8F/ 8A-/J	8r	8d'/ 8dd'/J	.
=258	=258	=258	=258
8r	4BB-\	(8d/ 8dd/L	.
8E-/ 8G/L	.	8c/) 8cc/	.
8E-/ 8G/J	8r	8c'/ 8cc'/J	.
8r	4BB-\	(8c/ 8cc/L	.
8D/ 8F/L	.	8B-/) 8b-/	.
8D/ 8F/J	8r	8B-'/ 8b-'/J	.
*v	*v	*	*
=259	=259	=259
8BBBn/ 8FF/ 8BBn/L	(8B-/ 8b-/L	ff
8BBB/ 8FF/ 8BB/	8A-/) 8d/ 8f/ 8a-/	.
8BBB/ 8FF/ 8BB/J	8A-/ 8d/ 8f/ 8a-/J	.
8BBB/ 8FF/ 8BB/L	8A-/ 8d/ 8f/ 8a-/L	.
8BBB/ 8FF/ 8BB/	8A-/ 8d/ 8f/ 8a-/	.
8BBB/ 8FF/ 8BB/J	8A-/ 8d/ 8f/ 8a-/J	.
=260	=260	=260
8BBBn/ 8FF/ 8BBn/L	8A-/ 8d/ 8f/ 8a-/L	.
8BBB/ 8FF/ 8BB/	8A-/ 8d/ 8f/ 8a-/	.
8BBB/ 8FF/ 8BB/J	8A-/ 8d/ 8f/ 8a-/J	.
8BBB/ 8FF/ 8BB/L	8A-/ 8d/ 8f/ 8a-/L	.
8BBB/ 8FF/ 8BB/	8A-/ 8d/ 8f/ 8a-/	.
8BBB/ 8FF/ 8BB/J	8A-/ 8d/ 8f/ 8a-/J	.
=261	=261	=261
4CC/ 4FF/ 4C/	4An/ 4c/ 4f/ 4an/	.
8r	8r	.
[4.C\ 4.An\	[4.c/ (4.f/	pp
=262	=262	=262
*^	*^	*
4.B-/	2.C\]	4.en/	2.c\_	.
4.En/	.	4.b-/	.	.
*	*	*v	*v	*
=263	=263	=263	=263
4.F/	[2.C\	4.c/] 4.an/)	.
(4.An/	.	[4.c/ 4.f/ [4.cc/	.
=264	=264	=264	=264
*	*	*^	*
*	*	*	*^	*
4.B-/	2.C\]	2.cc/_	4.en\	2.c\_	.
*	*	*	*v	*v	*
4.En/	.	.	4.b-\	.
*	*	*v	*v	*
=265	=265	=265	=265
4F/)	[2.C\	4c/] 4an/ 4cc/]	.
8r	.	8r	.
(4.F/	.	8bn\ 8bbn\L	<
.	.	8cc\ 8ccc\	.
.	.	8dd\ 8ddd\J	.
=266	=266	=266	=266
4.En/	2.C\]	8cc\ 8ccc\L	>
.	.	8b-\ 8bb-\	.
.	.	8an\ 8aan\J	.
4.B-/)	.	8g\ 8gg\L	.
.	.	8f\ 8ff\	.
.	.	8en\ 8een\J	.
=267	=267	=267	=267
4.An/	[2.C\	8f\ (8ff\L	.
.	.	8g\ 8gg\	.
.	.	8an\ 8aan\J	.
4.F/	.	8bn\ 8bbn\L	.
.	.	8cc\ 8ccc\	.
.	.	8dd\ 8ddd\J	.
=268	=268	=268	=268
4.En/	2.C\]	8cc\ 8ccc\L	.
.	.	8b-\ 8bb-\	.
.	.	8an\ 8aan\J	.
4.B-/	.	8g\ 8gg\L	.
.	.	8f\ 8ff\	.
.	.	8en\ 8een\J)	.
=269	=269	=269	=269
[4.An/	4.F\	[4.f\ [4.ff\	.
(8A/L]	4.E-\	8f\] (8ff\L]	.
8B-/	.	8g\ 8gg\	.
8c/J)	.	8an\ 8aan\J)	.
=270	=270	=270	=270
[4.B-/	(4.D\	4b-\ (4bb-\	.
.	.	8a-\ 8aa-\	.
4.B-/] 4.e-/	4.E-\)	4g\ 4gg\	.
.	.	8a-\ 8aa-\)	.
*v	*v	*	*
=271	=271	=271
*^	*	*
(4.Bn/ 4.BBn\	2.G/	4g\ (4gg\	>
.	.	8f\ 8ff\	.
4.c/) 4.C\	.	4e-\ 4ee-\	.
.	.	8g\ 8gg\)	.
*v	*v	*	*
=272	=272	=272
4AA-\ 4A-\	4f'\ 4ff'\	.
8r	8e-'\ 8ee-'\	.
4BB-\ 4B-\	4d'\ 4dd'\	.
8r	8f'\ 8ff'\	.
=273	=273	=273
8EE-\ 8E-\L	8e-'\ 8ee-'\L	.
8E-'\	8ee-'\	.
8E-'\J	8ee-'\J	.
(8E-\L	(8ee-\L	.
8D\	8dd\	.
8E-\J)	8ee-\J)	.
=274	=274	=274
8GG'\ 8G'\L	8g'\ 8gg'\L	.
8G'\	8gg'\	.
8G'\J	8gg'\J	.
(8G\L	(8gg\L	.
8F#\	8ff#\	.
8G\J)	8gg\J)	.
=275	=275	=275
8BB-'\ 8B-'\L	8b-'\ 8bb-'\L	.
8B-'\	8bb-'\	.
8B-'\J	8bb-'\J	.
(8B-\L	(8bb-'\L	.
8An\	8aan\	.
8B-\J)	8bb-\J)	.
=276	=276	=276
8E-'\ 8e-'\L	8ee-'\ 8eee-'\L	.
8e-'\	8eee-'\	.
8e-'\J	8eee-'\J	.
(8e-\L	(8eee-\L	.
8d\	8ddd\	.
8e-\J)	8eee-\J)	.
=277	=277	=277
2.C\ 2.E-\	(16e-/LL	f
.	16f/	.
.	16e-/	.
.	16d/	.
.	16e-/	.
.	16d/JJ	.
.	16e-/LL	.
.	16en/	.
.	16f/	.
.	16f#/	.
.	16g/	.
.	16a-/JJ	.
=278	=278	=278
2.C-\ 2.E-\ 2.G-\ 2.An\	16an\LL	ff
.	16b-\	.
.	16bn\	.
.	16cc\	.
.	16cc#\	.
.	16dd\	.
!!.	28.ee-\JJ	.
.	16een\LL	.
.	16ff\	.
.	16ff#\	.
.	16gg\	.
.	16aa-\)	.
.	16aan\JJ	.
=279	=279	=279
8BB-\ 8E-\ 8Gn\	4bb-\	.
12B-/L	.	.
12B-/	.	.
.	8r	.
12B-/J	.	.
8r	4g\ 4ee-\ 4gg\	.
8B-\L	.	.
8B-\J	8r	.
=280	=280	=280
8r	4a-\ 4ff\ 4aa-\	.
8BB-/L	.	.
8BB-/J	8r	.
8r	4f\ 4a-\ 4dd\	.
8BB-/L	.	.
8BB-/J	8r	.
=281	=281	=281
8EE-'\L	16E-/LL	ff
.	16e-/	.
8EE-'\	16E-/	.
.	16e-/	.
8EE-'\J	16E-/	.
.	16e-/JJ	.
(8EE-\L	16E-/LL	.
.	16e-/	.
8DD\	16E-/	.
.	16d/	.
8EE-\J)	16D/	.
.	16e-/JJ	.
=282	=282	=282
8GGG'\L	16G/LL	.
.	16g/	.
8GG'\	16G/	.
.	16g/	.
8GG'\J	16G/	.
.	16g/JJ	.
(8GG\L	16G/LL	.
.	16g/	.
8FF#\	16F#/	.
.	16f#/	.
8GG\J)	16G/	.
.	16g/JJ	.
=283	=283	=283
8BBB-'/L	16B-/LL	.
.	16b-/	.
8BB-'/	16B-/	.
.	16b-/	.
8BB-'/J	16B-/	.
.	16b-/JJ	.
(8BB-/L	16B-/LL	.
.	16b-/	.
8AAn/	16An/	.
.	16an/	.
8BB-/J)	16B-/	.
.	16b-/JJ	.
=284	=284	=284
8EE-'/L	16e-/LL	.
.	16ee-/	.
8E-'/	16e-/	.
.	16ee-/	.
8E-'/J	16e-/	.
.	16ee-/JJ	.
(8E-\L	16e-/LL	.
.	16ee-/	.
8D\	16d/	.
.	16dd/	.
8E-\J)	16e-/	.
.	16ee-/JJ	.
=285	=285	=285
*^	*	*
16E-/LL	2.CC\ 2.EE-\ 2.C\	2.r	.
16F/	.	.	.
16E-/	.	.	.
16D/	.	.	.
16E-/	.	.	.
16D/JJ	.	.	.
16E-/LL	.	.	.
16En/	.	.	.
16F/	.	.	.
16F#/	.	.	.
16G/	.	.	.
16A-/JJ	.	.	.
=286	=286	=286	=286
16An/LL	2.CC-\ 2.EE-\ 2.C-\	4.r	.
16B-/	.	.	.
16Bn/	.	.	.
16c/	.	.	.
16c#/	.	.	.
16d/JJ	.	.	.
4.r	.	16e-/LL	<
.	.	16en/	.
.	.	16f/	.
.	.	16f#/	.
.	.	16g/	.
.	.	16a-/JJ	.
*v	*v	*	*
=287	=287	=287
2.BBB-/ 2.EE-/ 2.BB-/	16an\LL	.
.	16b-\	.
.	16bn\	.
.	16cc\	.
.	16cc#\	.
.	16dd\JJ	.
.	16ee-\LL	.
.	16een\	.
.	16ff\	.
.	16gg-\	.
.	16ff\	.
.	16gg-\JJ	.
=288	=288	=288
2.AAAn/ 2.EE-/ 2.AAn/	(16ff\LL	ff
.	16gg-\	.
.	16ff\	.
.	16gg-\	.
.	16ff\	.
.	16gg-\JJ	.
.	16ff\LL	.
.	16gg-\	.
.	16ff\	.
.	16gg-\	.
.	16ff\)	.
.	16gg-\JJ	.
=289	=289	=289
4BBB-/ 4EE-/ 4BB-/	(8ggn\L	.
.	8ff\)	.
8r	8ee-'\J	.
4BB-\ 4E-\ 4G\	(8ee-\L	.
.	8dd\)	.
8r	8cc'\J	.
=290	=290	=290
4BB-\ 4E-\ 4G\	(8b-/L	.
.	8a-/)	.
8r	8g'/J	.
4BB-\ 4F\ 4A-\	(8f/L	.
.	8a-/)	.
8r	8d'/J	.
=291	=291	=291
4E-\ 4G\	8e-/	.
.	16eee-\LL	.
.	16gg\	.
8r	16eee-\	.
.	16gg\JJ	.
[4.E-\	16ee-\LL	.
.	16gg\	.
.	16eee-\	.
.	16gg\	.
.	16eee-\	.
.	16gg\JJ	.
=292	=292	=292
2.E-\_	16ff-\LL	.
.	16gg\	.
.	16ddd-\	.
.	16gg\	.
.	16ddd-\	.
.	16gg\JJ	.
.	16ee-\LL	.
.	16gg\	.
.	16eee-\	.
.	16gg\	.
.	16eee-\	.
.	16gg\JJ	.
=293	=293	=293
4.E-\]	16dd-\LL	.
.	16gg\	.
.	16fff-\	.
.	16gg\	.
.	16fff-\	.
.	16gg\JJ	.
[4.e-\	16ee-\LL	.
.	16gg\	.
.	16eee-\	.
.	16gg\	.
.	16eee-\	.
.	16gg\JJ	.
=294	=294	=294
2.e-\_	16ff-\LL	.
.	16gg\	.
.	16ddd-\	.
.	16gg\	.
.	16ddd-\	.
.	16gg\JJ	.
.	16dd-\LL	.
.	16gg\	.
.	16fff-\	.
.	16gg\	.
.	16fff-\	.
.	16gg\JJ	.
=295	=295	=295
4.e-\]	16cc\LL	.
.	16aa-\	.
.	16eee-\	.
.	16aa-\	.
.	16eee-\	.
.	16aa-\JJ	.
[4.E-\	16dd-\LL	.
.	16aa-\	.
.	16ddd-\	.
.	16aa-\	.
.	16ddd-\	.
.	16aa-\JJ	.
=296	=296	=296
2.E-\_	16ee-\LL	.
.	16aa-\	.
.	16ccc\	.
.	16aa-\	.
.	16ccc\	.
.	16aa-\JJ	.
.	16ee-\LL	.
.	16aa-\	.
.	16ccc-\	.
.	16aa-\	.
.	16ccc-\	.
.	16aa-\JJ	.
=297	=297	=297
4.E-\]	16ddn\LL	.
.	16aa-\	.
.	16ccc-\	.
.	16aa-\	.
.	16ccc-\	.
.	16aa-\JJ	.
[4.EE-/	16dd\LL	.
.	16aa-\	.
.	16bb-\	.
.	16aa-\	.
.	16bb-\	.
.	16aa-\JJ	.
=298	=298	=298
2.EE-/_	16dd\LL	.
.	16aa-\	.
.	16bb-\	.
.	16aa-\	.
.	16bb-\	.
.	16aa-\JJ	.
.	16dd\LL	.
.	16aa-\	.
.	16bb-\	.
.	16aa-\	.
.	16bb-\	.
.	16aa-\JJ	.
=299	=299	=299
4.EE-/]	16ee-\LL	.
.	16gg\	.
.	16bb-\	.
.	16gg\	.
.	16bb-\	.
.	16gg\JJ	.
[4.E-\	16g\LL	.
.	16ee-\	.
.	16gg\	.
.	16ee-\	.
.	16gg\	.
.	16ee-\JJ	.
=300	=300	=300
2.E-\_	16g\LL	.
.	16ff-\	.
.	16gg\	.
.	16ff-\	.
.	16gg\	.
.	16ff-\JJ	.
.	16g\LL	.
.	16ee-\	.
.	16gg\	.
.	16ee-\	.
.	16gg\	.
.	16ee-\JJ	.
=301	=301	=301
4.E-\]	16g\LL	.
.	16dd-\	.
.	16gg\	.
.	16dd-\	.
.	16gg\	.
.	16dd-\JJ	.
[4.e-\	16g\LL	.
.	16ee-\	.
.	16gg\	.
.	16ee-\	.
.	16gg\	.
.	16ee-\JJ	.
=302	=302	=302
2.e-\]	16g\LL	.
.	16ff-\	.
.	16gg\	.
.	16ff-\	.
.	16gg\	.
.	16ff-\JJ	.
.	16g\LL	.
.	16dd-\	.
.	16gg\	.
.	16dd-\	.
.	16gg\	.
.	16dd-\JJ	.
=303	=303	=303
4.e-\	16a-\LL	.
.	16cc\	.
.	16aa-\	.
.	16cc\	.
.	16aa-\	.
.	16cc\JJ	.
[4.E-\	16a-\LL	.
.	16cc-\	.
.	16aa-\	.
.	16cc-\	.
.	16aa-\	.
.	16cc-\JJ	.
=304	=304	=304
2.E-\_	16a-\LL	.
.	16b-\	.
.	16ee-\	.
.	16b-\	.
.	16ee-\	.
.	16b-\JJ	.
.	16g\LL	.
.	16b-\	.
.	16ee-\	.
.	16b-\	.
.	16ee-\	.
.	16b-\JJ	.
=305	=305	=305
4.E-\]	16f\LL	.
.	16a-\	.
.	16ee-\	.
.	16a-\	.
.	16ee-\	.
.	16a-\JJ	.
[4.EE-/	16f\LL	.
.	16a-\	.
.	16dd\	.
.	16a-\	.
.	16dd\	.
.	16a-\JJ	.
=306	=306	=306
2.EE-/_	16f\LL	.
.	16b-\	.
.	16dd\	.
.	16b-\	.
.	16dd\	.
.	16b-\JJ	.
.	16f\LL	.
.	16a-\ 16cc-\	.
.	16dd\	.
.	16a-\ 16cc-\	.
.	16dd\	.
.	16a-\ 16cc-\JJ	.
=307	=307	=307
4EE-/] 4E-/	4g'\ 4b-'\ 4ee-'\	.
[8G\	[8g/	.
4G\]	(4g/]	.
8E-\	8e-/	.
=308	=308	=308
*^	*^	*
4BB-'/	4r	4r	4B-'/)	.
[8d/	[8B-\	8ff/	[8a-\	.
4d/]	4.B-\]	(4ff/	4.a-\]	.
8f/	.	8dd/	.	.
*	*	*v	*v	*
=309	=309	=309	=309
4e-'/	4E-\	4g'\ 4ee-'\)	.
8r	[8G\	[8g/	.
4.r	4G\]	(4g/]	.
.	8E-\	8e-/	.
=310	=310	=310	=310
*	*	*^	*
4BB-'/	4r	4r	4B-'/)	.
[8f/	[8B-\	[8aa-/	[8a-\	.
4f/]	4.B-\]	(4aa-/]	4.a-\]	.
8d/	.	8ff/	.	.
*	*	*v	*v	*
=311	=311	=311	=311
4e-'/	4E-\	4g'\ 4gg'\)	.
8r	[8G\	[8g/	.
4.r	4G\]	(4g/]	.
.	8E-\	8e-/	.
*v	*v	*	*
=312	=312	=312
4BB-'/	4B-'/)	.
[8BBB-/ 8BB-/	8ff\ 8aa-\ [8fff\	.
4BBB-/] 4BB-/	4ff\ 4aa-\ 4fff\]	.
8BBB-/ 8BB-/	8ff\ 8aa-\ 8ddd\	.
=313	=313	=313
8BBBn/	[2.ff\ [2.aa-\ [2.ddd\ [2.fff\	ff
8BBn/L	.	.
8BB/J	.	.
8BB/L	.	.
8BB/	.	.
8BB/J	.	.
=314	=314	=314
8BBn/L	4ff\] 4aa-\] 4ddd\] 4fff\]	.
8BB/	.	.
8BB/J	8ff'\ 8aa-'\ 8ddd'\	.
8BB/L	4ff'\ 4aa-'\ 4ddd'\ 4fff'\	.
8BB/	.	.
8BB/J	8ff'\ 8aa-'\ 8ddd'\	.
=315	=315	=315
8CC/L	2.ee-\ 2.gg\ 2.ccc\ 2.eee-\	ff
8C/	.	.
8C/J	.	.
8C/L	.	.
8C/	.	.
8C/J	.	.
=316	=316	=316
8C/L	4cc\ 4ee-\ 4gg\ 4ccc\	.
8C/	.	.
8C/J	8r	.
8C/L	4r	.
8C/	.	.
8C/J	8b-\ 8cc\ 8een\ 8gg\	.
=317	=317	=317
8FF/L	2.a-\ 2.cc\ 2.ff\ 2.aa-\	ff
8F/	.	.
8F/J	.	.
8F\L	.	.
8F\	.	.
8F\J	.	.
=318	=318	=318
8FF/L	4f\ 4a-\ 4cc\ 4ff\	.
8F/	.	.
8F/J	8r	.
8EE-/L	4r	.
8E-/	.	.
8E-/J	8f\ 8an\ 8cc\ 8ff\	.
=319	=319	=319
8DD/L	2.f\ 2.a-\ 2.b-\ 2.ff\	ff
8D/	.	.
8D/J	.	.
8BB-\L	.	.
8B-\	.	.
8B-\J	.	.
=320	=320	=320
8B-\L	4f/ 4a-/ 4dd/	p
8B-\	.	.
8B-\J	8r	.
8B-\L	4d/ 4f/ 4a-/	.
8B-\	.	.
8B-\J	8r	.
=321	=321	=321
8B-\L	4A-/ 4d/ 4f/	.
8B-\	.	.
8B-\J	8r	.
*	*clefF4	*clefF4
8B-\L	4F\ 4A-\ 4d\	.
8B-\	.	.
8B-\J	8r	.
=322	=322	=322
8B-\L	4D\ 4F\ 4A-\	.
8B-\	.	.
8B-\J	8r	.
8B-\L	4AA-/ 4D/ 4F/	.
8B-\	.	.
8B-\J	8r	.
=323	=323	=323
4B-\	4GG/ 4E-/	.
8r	8r	.
*	*clefG2	*clefG2
4.E-\ [4.B-\	4.g\ (4.gg\	p
=324	=324	=324
*^	*	*
2.B-/]	4.F\ 4.d\	4.a-\ 4.ff\	.
.	4.G\ 4.e-\	4.b-\ 4.ee-\	.
*v	*v	*	*
=325	=325	=325
4A-\ 4c\	4cc\)	.
8r	8r	.
4.F\ 4.c\	4.a-\ (4.aa-\	.
=326	=326	=326
*^	*	*
2.c/	4.G\ 4.en\	4.b-\ 4.gg\	.
.	4.A-\ 4.f\	4.cc\ 4.ff\	.
*v	*v	*	*
=327	=327	=327
*	*^	*
4B-\ 4f\	4dd/)	4dd\	.
8r	8r	8r	.
4.E-\ 4.G\	(4.b-/	8r	.
.	.	8g\L	.
.	.	8g\J	.
=328	=328	=328	=328
4.F\ 4.A-\	4.dd/	8g\L	.
.	.	8f\	.
.	.	8f'\J	.
4.G\ 4.B-\	4.ee-/	8r	.
.	.	8e-\L	.
.	.	8e-\J	.
=329	=329	=329	=329
4A-\ 4c\	4cc/)	8d\L	.
.	.	8e-\	.
8r	8r	8e-'\J	.
4.F\ 4.A-\	(4.cc/	8r	.
.	.	8a-\L	.
.	.	8a-\J	.
=330	=330	=330	=330
4.G\ 4.B-\	4.een/	8a-\L	.
.	.	8g\	.
.	.	8g'\J	.
4.A-\ 4.c\	4.ff/	8r	.
.	.	8f\L	.
.	.	8f\J	.
=331	=331	=331	=331
4B-\ 4d\	4dd/)	8en\L	.
.	.	8f\	.
8r	8r	8f'\J	.
4.r	4.b-/ (4.dd/	8r	<
.	.	8c\ 8a-\L	.
.	.	8c\ 8a-\J	.
=332	=332	=332	=332
4.r	4.cc/ 4.ee-/	8c\ 8a-\L	.
.	.	8B-\ 8g\	.
.	.	8B-'\ 8g'\J	.
8r	4.dd/ 4.ff/	4.r	.
8A-\ 8f\L	.	.	.
8A-\ 8f\J	.	.	.
*	*v	*v	*
=333	=333	=333
8A-\ 8f\L	4ee-\ 4gg\)	.
8G\ 8e-\	.	.
8G'\ 8e-'\J	8r	.
8r	4.ee-\ 4.gg\ (4.eee-\	.
8E-\ 8c\L	.	.
8E-\ 8c\J	.	.
=334	=334	=334
8E-\ 8c\L	4.ff\ 4.aa-\ 4.eee-\	.
8D-\ 8B-\	.	.
8D-'\ 8B-'\J	.	.
8r	4.gg\ 4.bb-\ 4.eee-\	.
8D-\ 8B-\L	.	.
8D-\ 8B-\J	.	.
=335	=335	=335
8D-\ (8B-\L	4aa-\ 4ccc\ 4eee-\)	.
8C\ 8A-\)	.	.
8C'\ 8A-'\J	8r	.
8r	4.ee-\ 4.eee-\	f
8BB-\ 8G\L	.	.
8BB-\ 8G\J	.	.
=336	=336	=336
(8BB-/ 8G/L	4.e-\ 4.ee-\	.
8AA-/) 8F/	.	.
8AA-'/ 8F'/J	.	.
8r	4.b-\ 4.bb-\	.
8GG/ 8E-/L	.	.
8GG/ 8E-/J	.	.
=337	=337	=337
(8GG/ 8E-/L	4.B-/ 4.b-/	.
8FF/) 8D/	.	.
8FF'/ 8D'/J	.	.
8r	4.a-\ 4.aa-\	ff
8EE-/ 8C/L	.	.
8EE-/ 8C/J	.	.
=338	=338	=338
*^	*	*
4.A-/ 4.B-/	8r	2.r	.
.	8DD\ 8BB-\L	.	.
.	8DD\ 8BB-\J	.	.
4.E-/ 4.A-/ 4.B-/ 4.e-/	8r	.	.
.	8CC\ 8BB-\L	.	.
.	8CC\ 8BB-\J	.	.
=339	=339	=339	=339
4D/ 4A-/ 4B-/ 4d/	2.BBB-\ [2.BB-\	4r	.
8r	.	[8a-/	.
4.r	.	(4a-/]	.
.	.	8f/	.
=340	=340	=340	=340
8r	2.BB-\_	4d'/)	.
8r	.	.	.
[8c-/	.	[8a-\ [8aa-\	.
4c-/]	.	4a-\] (4aa-\]	.
8A-/	.	8f\ 8ff\	.
=341	=341	=341	=341
4F/	2.BB-\_	4d'/ 4dd'/)	.
8r	.	[8a-/	.
4r	.	(4a-/]	.
8r	.	8f/	.
=342	=342	=342	=342
8r	2.BB-\_	4d'/)	.
8r	.	.	.
[8A-/	.	[8cc-\ [8ccc-\	.
4A-/]	.	4cc-\] (4ccc-\]	.
8F/	.	8a-\ 8aa-\	.
=343	=343	=343	=343
4D/	4BB-\]	4f'\ 4ff'\)	.
8r	8r	[8cc-\	pp
4r	4r	(4cc-\]	.
8r	8r	8a-/	.
*v	*v	*	*
=344	=344	=344
2.r	(4f'/)	.
.	[8cc-\	.
.	(4cc-\])	.
.	8a-/	.
=345	=345	=345
2.r	4f'/)	.
.	[8cc-\	.
.	(4cc-\]	.
.	8b-\	.
=346	=346	=346
4r	4an/)	.
[8cn\	[8a^/	.
(4c\]	4a/]	.
8c-\	8a-/	.
=347	=347	=347
4B-'\)	4g'/	.
[8B-\	8g\ [8gg\	.
4B-\]	4g\ 4gg\]	.
(8An\	8f#\ 8ff#\	.
=348	=348	=348
4A-'\)	4fn'\ 4ffn'\	.
[8G\	[8en\ [8een\	.
4G\]	4e\] 4ee\]	.
(8F#\	[8e-\ 8an\ [8ee-\	.
=349	=349	=349
[2.BB-\ [2.Fn\)	2.e-\] 2.a-\ 2.ee-\]	pp
=350	=350	=350
2.BB-\] 2.F\] 2.B-\	2.d\ 2.a-\ 2.dd\	.
=351	=351	=351
8EE-/L	4e-\ 4g\ 4ee-\	.
8E-/	.	.
8E-/J	8r	.
8E-\L	4r	.
8E-\	.	.
8E-\J	8r	.
=352	=352	=352
8E-\L	2.B-/ 2.e-/ 2.g/	<
8E-\	.	.
8E-\J	.	.
8E-\L	.	.
8E-\	.	.
8E-\J	.	.
=353	=353	=353
8EE-/L	4G/ 4B-/ 4e-/	.
8E-/	.	.
8E-/J	8r	.
8E-\L	4r	.
8E-\	.	.
8E-\J	8r	.
=354	=354	=354
8E-\L	2.B-/ 2.e-/ 2.g/ 2.b-/	.
8E-\	.	.
8E-\J	.	.
8E-\L	.	.
8E-\	.	.
8E-\J	.	.
=355	=355	=355
16EE-/LL	4G/ 4B-/ 4g/	.
16E-/	.	.
16D/	.	.
16E-/	.	.
16D/	8r	.
16E-/JJ	.	.
16D\LL	4e-'/ 4g'/ 4b-'/ 4ee-'/	f
16E-\	.	.
16D\	.	.
16E-\	.	.
16D\	8r	.
16E-\JJ	.	.
=356	=356	=356
16EE-/LL	4B-'/ 4e-'/ 4g'/ 4b-'/	.
16E-/	.	.
16D/	.	.
16E-/	.	.
16D/	8r	.
16E-/JJ	.	.
16D\LL	4g'\ 4b-'\ 4ee-'\ 4gg'\	.
16E-\	.	.
16D\	.	.
16E-\	.	.
16D\	8r	.
16E-\JJ	.	.
=357	=357	=357
16EE-/LL	4e-'\ 4g'\ 4b-'\ 4ee-'\	.
16E-/	.	.
16D/	.	.
16E-/	.	.
16D/	8r	.
16E-/JJ	.	.
16D\LL	4b-'\ 4ee-'\ 4gg'\ 4bb-'\	ff
16E-\	.	.
16D\	.	.
16E-\	.	.
16D\	8r	.
16E-\JJ	.	.
=358	=358	=358
16BB-/LL	4g'\ 4b-'\ 4ee-'\ 4gg'\	.
16E-/	.	.
16D/	.	.
16E-/	.	.
16D/	8r	.
16E-/JJ	.	.
16GG/LL	4ee-'\ 4gg'\ 4bb-'\ 4eee-'\	.
16E-/	.	.
16D/	.	.
16E-/	.	.
16D/	8r	.
16E-/JJ	.	.
=359	=359	=359
4EE-/	4G/ 4B-/ 4e-/	ff
8r	8r	.
4BBB-/ 4BB-/	4F/ 4A-/ 4B-/ 4d/	.
8r	8r	.
=360	=360	=360
4EE-/ 4E-/	4G/ 4B-/ 4e-/	.
8r	8r	.
4BBB-/ 4BB-/	4dd'\ 4ff'\ 4aa-'\ 4bb-'\ 4ddd'\	.
8r	8r	.
=361	=361	=361
4EE-'/ 4E-'/	4ee-'\ 4gg'\ 4bb-'\ 4eee-'\	.
8r	8r	.
4r	4r	.
8r	8r	.
=362	=362	=362
2.r;	2.r;	.
==	==	==
*-	*-	*-
!!!ENC: Craig Stuart Sapp
!!!END: 2006/07/26/
!!!hum2abc: --spacing 2.0 -s 0.72
